groups/nitrogen/formimidamide.svg

<svg height="256" viewBox="0 0 256 256" width="256" xmlns="http://www.w3.org/2000/svg"><path d="m0 0h256v256h-256z" fill="#fff"/><g fill="none" stroke-width="2"><path d="m226.9 214.9-41.3-24" stroke="#000"/><path d="m172.2 169.6.1-49.8" stroke="#000"/><path d="m181.7 169.7.1-49.9" stroke="#000"/><path d="m172.3 119.8-41.3-23.9" stroke="#000"/><path d="m117.5 74.5.1-28.7" stroke="#000"/><path d="m104 95.8-27.9 16" stroke="#000"/><path d="m172.3 122.3v-2.5l-2.1-1.2" stroke="#000" stroke-miterlimit="10"/><path d="m242.8 187.514c-2.054-1.192-3.643 1.547-1.589 2.738 2.054 1.192.465 3.931-1.589 2.739-2.054-1.191-3.643 1.547-1.588 2.739 2.054 1.192.465 3.93-1.589 2.739-2.054-1.192-3.643 1.547-1.589 2.739 2.054 1.191.465 3.93-1.589 2.738-2.054-1.191-3.643 1.548-1.589 2.739 2.054 1.192.465 3.931-1.589 2.739s-3.642 1.547-1.588 2.739c2.054 1.191.465 3.93-1.589 2.739-2.054-1.192-3.643 1.547-1.589 2.738 2.054 1.192.465 3.931-1.589 2.739-2.054-1.191-3.643 1.547-1.589 2.739s.466 3.93-1.588 2.739c-2.055-1.192-3.643 1.547-1.589 2.739 2.054 1.191.465 3.93-1.589 2.738-2.054-1.191-3.643 1.548-1.589 2.739 2.054 1.192.465 3.93-1.589 2.739-2.054-1.192-3.643 1.547-1.589 2.739 2.054 1.191.466 3.93-1.588 2.739" stroke="#7f7f7f"/></g><text font-family="sans-serif" font-size="37" x="160.7" y="202.1">N</text><text font-family="sans-serif" font-size="37" x="106.1" y="107">N</text><text font-family="sans-serif" font-size="37" x="106.2" y="43.7">C</text><text font-family="sans-serif" font-size="37" x="132.4" y="43.7">H</text><text font-family="sans-serif" font-size="25" x="158.6" y="58.9">3</text><text font-family="sans-serif" font-size="37" x="12.8" y="138.6">H</text><text font-family="sans-serif" font-size="25" x="39" y="153.8">3</text><text font-family="sans-serif" font-size="37" x="51.2" y="138.6">C</text></svg>

<?xml version='1.0' encoding='iso-8859-1'?>
<svg version='1.1' baseProfile='full'
              xmlns='http://www.w3.org/2000/svg'
                      xmlns:rdkit='http://www.rdkit.org/xml'
                      xmlns:xlink='http://www.w3.org/1999/xlink'
                  xml:space='preserve'
width='256px' height='256px' viewBox='0 0 256 256'>
<!-- END OF HEADER -->
<rect style='opacity:1.0;fill:#FFFFFF;stroke:none' width='256.0' height='256.0' x='0.0' y='0.0'> </rect>
<path class='bond-0 atom-0 atom-1' d='M 226.9,214.9 L 185.6,190.9' style='fill:none;fill-rule:evenodd;stroke:#000000;stroke-width:2.0px;stroke-linecap:butt;stroke-linejoin:miter;stroke-opacity:1' />
<path class='bond-1 atom-1 atom-2' d='M 172.2,169.6 L 172.3,119.8' style='fill:none;fill-rule:evenodd;stroke:#000000;stroke-width:2.0px;stroke-linecap:butt;stroke-linejoin:miter;stroke-opacity:1' />
<path class='bond-1 atom-1 atom-2' d='M 181.7,169.7 L 181.8,119.8' style='fill:none;fill-rule:evenodd;stroke:#000000;stroke-width:2.0px;stroke-linecap:butt;stroke-linejoin:miter;stroke-opacity:1' />
<path class='bond-2 atom-2 atom-3' d='M 172.3,119.8 L 131.0,95.9' style='fill:none;fill-rule:evenodd;stroke:#000000;stroke-width:2.0px;stroke-linecap:butt;stroke-linejoin:miter;stroke-opacity:1' />
<path class='bond-3 atom-3 atom-4' d='M 117.5,74.5 L 117.6,45.8' style='fill:none;fill-rule:evenodd;stroke:#000000;stroke-width:2.0px;stroke-linecap:butt;stroke-linejoin:miter;stroke-opacity:1' />
<path class='bond-4 atom-3 atom-5' d='M 104.0,95.8 L 76.1,111.8' style='fill:none;fill-rule:evenodd;stroke:#000000;stroke-width:2.0px;stroke-linecap:butt;stroke-linejoin:miter;stroke-opacity:1' />
<path d='M 172.3,122.3 L 172.3,119.8 L 170.2,118.6' style='fill:none;stroke:#000000;stroke-width:2.0px;stroke-linecap:butt;stroke-linejoin:miter;stroke-miterlimit:10;stroke-opacity:1;' />
<path class='atom-1' d='M242.8,187.514 C240.746,186.322 239.157,189.061 241.211,190.252 C243.265,191.444 241.676,194.183 239.622,192.991 C237.568,191.8 235.979,194.538 238.034,195.73 C240.088,196.922 238.499,199.66 236.445,198.469 C234.391,197.277 232.802,200.016 234.856,201.208 C236.91,202.399 235.321,205.138 233.267,203.946 C231.213,202.755 229.624,205.494 231.678,206.685 C233.732,207.877 232.143,210.616 230.089,209.424 C228.035,208.232 226.447,210.971 228.501,212.163 C230.555,213.354 228.966,216.093 226.912,214.902 C224.858,213.71 223.269,216.449 225.323,217.64 C227.377,218.832 225.788,221.571 223.734,220.379 C221.68,219.188 220.091,221.926 222.145,223.118 C224.199,224.31 222.611,227.048 220.557,225.857 C218.502,224.665 216.914,227.404 218.968,228.596 C221.022,229.787 219.433,232.526 217.379,231.334 C215.325,230.143 213.736,232.882 215.79,234.073 C217.844,235.265 216.255,238.003 214.201,236.812 C212.147,235.62 210.558,238.359 212.612,239.551 C214.666,240.742 213.078,243.481 211.024,242.29' style='fill:none;stroke:#7F7F7F;stroke-width:2.0px;stroke-linecap:butt;stroke-linejoin:miter;stroke-opacity:1' />
<text x='160.7' y='202.1' class='atom-1' style='font-size:37px;font-style:normal;font-weight:normal;fill-opacity:1;stroke:none;font-family:sans-serif;text-anchor:start;fill:#000000' >N</text>
<text x='106.1' y='107.0' class='atom-3' style='font-size:37px;font-style:normal;font-weight:normal;fill-opacity:1;stroke:none;font-family:sans-serif;text-anchor:start;fill:#000000' >N</text>
<text x='106.2' y='43.7' class='atom-4' style='font-size:37px;font-style:normal;font-weight:normal;fill-opacity:1;stroke:none;font-family:sans-serif;text-anchor:start;fill:#000000' >C</text>
<text x='132.4' y='43.7' class='atom-4' style='font-size:37px;font-style:normal;font-weight:normal;fill-opacity:1;stroke:none;font-family:sans-serif;text-anchor:start;fill:#000000' >H</text>
<text x='158.6' y='58.9' class='atom-4' style='font-size:25px;font-style:normal;font-weight:normal;fill-opacity:1;stroke:none;font-family:sans-serif;text-anchor:start;fill:#000000' >3</text>
<text x='12.8' y='138.6' class='atom-5' style='font-size:37px;font-style:normal;font-weight:normal;fill-opacity:1;stroke:none;font-family:sans-serif;text-anchor:start;fill:#000000' >H</text>
<text x='39.0' y='153.8' class='atom-5' style='font-size:25px;font-style:normal;font-weight:normal;fill-opacity:1;stroke:none;font-family:sans-serif;text-anchor:start;fill:#000000' >3</text>
<text x='51.2' y='138.6' class='atom-5' style='font-size:37px;font-style:normal;font-weight:normal;fill-opacity:1;stroke:none;font-family:sans-serif;text-anchor:start;fill:#000000' >C</text>
</svg>
